auto-lastplayed/art/system1.svg

<svg id="svg9136" xmlns="http://www.w3.org/2000/svg" viewBox="0 0 391.2 69.3"><title>system1</title><g style="isolation:isolate"><path d="M30.6,70.4V81.9H3.2V12.6H14.7V70.3H30.6Z" transform="translate(-3.2 -12.6)" style="fill:#93d4ef"/><path d="M70,81.9H58.4V53.1H46.9V81.9H35.4V24.1A11.44,11.44,0,0,1,46.9,12.6H58.4A11.52,11.52,0,0,1,70,24.1ZM58.4,41.4V24.1H46.9V41.4Z" transform="translate(-3.2 -12.6)" style="fill:#93d4ef"/><path d="M98.7,58.8,75.6,41.4V24.1A11.44,11.44,0,0,1,87.1,12.6H98.6a11.44,11.44,0,0,1,11.5,11.5v8.7H98.7V24.1H87.1V35.6L110.2,53V70.3A11.44,11.44,0,0,1,98.7,81.8H87.1A11.44,11.44,0,0,1,75.6,70.3V61.6H87.1v8.7H98.6V58.8Z" transform="translate(-3.2 -12.6)" style="fill:#93d4ef"/><path d="M150.4,12.6V24.1H138.8V81.8H127.3V24.1H115.8V12.6Z" transform="translate(-3.2 -12.6)" style="fill:#93d4ef"/><path d="M210.1,41.4A11.61,11.61,0,0,1,198.5,53H187V81.8H175.5V12.6h23.1a11.52,11.52,0,0,1,11.6,11.5V41.4Zm-11.6,0V24.1H187V41.4Z" transform="translate(-3.2 -12.6)" style="fill:#93d4ef"/><path d="M242.3,70.4V81.9H214.9V12.6h11.5V70.3h15.9Z" transform="translate(-3.2 -12.6)" style="fill:#93d4ef"/><path d="M281.7,81.9H270.1V53.1H258.6V81.9H247V24.1a11.44,11.44,0,0,1,11.5-11.5H270a11.52,11.52,0,0,1,11.6,11.5V81.9ZM270.1,41.4V24.1H258.6V41.4Z" transform="translate(-3.2 -12.6)" style="fill:#93d4ef"/><path d="M322,12.6V41.5A11.52,11.52,0,0,1,310.4,53V81.8H298.9V53.1a11.44,11.44,0,0,1-11.5-11.5v-29h11.5V41.5h11.5V12.6Z" transform="translate(-3.2 -12.6)" style="fill:#93d4ef"/><path d="M354.6,70.4V81.9H338.7a11.44,11.44,0,0,1-11.5-11.5V24.1a11.44,11.44,0,0,1,11.5-11.5h15.8V24.1H338.6V41.4h15.8V53H338.5V70.3h16.1Z" transform="translate(-3.2 -12.6)" style="fill:#93d4ef"/><path d="M394.4,70.4a11.52,11.52,0,0,1-11.6,11.5H359.7V12.6h23.1a11.52,11.52,0,0,1,11.6,11.5Zm-11.6,0V24.1H371.3V70.3h11.5Z" transform="translate(-3.2 -12.6)" style="fill:#93d4ef"/></g></svg>

<?xml version="1.0" encoding="utf-8"?>
<!-- Generator: Adobe Illustrator 24.0.3, SVG Export Plug-In . SVG Version: 6.00 Build 0)  -->
<svg version="1.1"
	 id="svg9136" xmlns:cc="http://creativecommons.org/ns#" xmlns:dc="http://purl.org/dc/elements/1.1/" xmlns:inkscape="http://www.inkscape.org/namespaces/inkscape" xmlns:rdf="http://www.w3.org/1999/02/22-rdf-syntax-ns#" xmlns:sodipodi="http://sodipodi.sourceforge.net/DTD/sodipodi-0.dtd" xmlns:svg="http://www.w3.org/2000/svg"
	 xmlns="http://www.w3.org/2000/svg" xmlns:xlink="http://www.w3.org/1999/xlink" x="0px" y="0px" viewBox="0 0 397.3 103.7"
	 style="enable-background:new 0 0 397.3 103.7;" xml:space="preserve">
<style type="text/css">
	.st0{enable-background:new    ;}
	.st1{fill:#93D4EF;}
</style>
<sodipodi:namedview  bordercolor="#666666" borderopacity="1.0" fit-margin-bottom="0" fit-margin-left="0" fit-margin-right="0" fit-margin-top="0" id="base" inkscape:current-layer="layer1" inkscape:cx="297.77901" inkscape:cy="-126.0324" inkscape:document-units="px" inkscape:pageopacity="0.0" inkscape:pageshadow="2" inkscape:snap-global="false" inkscape:window-height="1137" inkscape:window-maximized="1" inkscape:window-width="1920" inkscape:window-x="1912" inkscape:window-y="-8" inkscape:zoom="0.98994949" pagecolor="#ffffff" showgrid="false" units="px">
	</sodipodi:namedview>
<g class="st0">
	<path class="st1" d="M30.6,70.4v11.5H3.2V12.6h11.5v57.7h11.5H30.6z"/>
	<path class="st1" d="M70,81.9H58.4V53.1H46.9v28.8H35.4V24.1c0-6.4,5.1-11.5,11.5-11.5h11.5c6.4,0,11.6,5.1,11.6,11.5V81.9z
		 M58.4,41.4V24.1H46.9v17.3H58.4z"/>
	<path class="st1" d="M98.7,58.8L75.6,41.4V24.1c0-6.4,5.1-11.5,11.5-11.5h11.5c6.4,0,11.5,5.1,11.5,11.5v8.7H98.7v-8.7H87.1v11.5
		l23.1,17.4v17.3c0,6.4-5.1,11.5-11.5,11.5H87.1c-6.4,0-11.5-5.1-11.5-11.5v-8.7h11.5v8.7h11.5V58.8z"/>
	<path class="st1" d="M150.4,12.6v11.5h-11.6v57.7h-11.5V24.1h-11.5V12.6H150.4z"/>
	<path class="st1" d="M210.1,41.4c0,6.4-5.2,11.6-11.6,11.6h-11.5v28.8h-11.5V12.6h23.1c6.4,0,11.6,5.1,11.6,11.5V41.4z M198.5,41.4
		V24.1h-11.5v17.3H198.5z"/>
	<path class="st1" d="M242.3,70.4v11.5h-27.4V12.6h11.5v57.7H238H242.3z"/>
	<path class="st1" d="M281.7,81.9h-11.6V53.1h-11.5v28.8H247V24.1c0-6.4,5.1-11.5,11.5-11.5h11.5c6.4,0,11.6,5.1,11.6,11.5V81.9z
		 M270.1,41.4V24.1h-11.5v17.3H270.1z"/>
	<path class="st1" d="M322,12.6v28.9c0,6.4-5.2,11.5-11.6,11.5v28.8h-11.5V53.1c-6.4,0-11.5-5.1-11.5-11.5V12.6h11.5v28.9h11.5V12.6
		H322z"/>
	<path class="st1" d="M354.6,70.4v11.5h-15.9c-6.4,0-11.5-5.1-11.5-11.5V38.6V24.1c0-6.4,5.1-11.5,11.5-11.5h11.5h4.3v11.5h-15.9
		v17.3h11.5h4.3v11.6h-15.9v17.3h11.5H354.6z"/>
	<path class="st1" d="M394.4,70.4c0,6.4-5.2,11.5-11.6,11.5h-23.1V12.6h23.1c6.4,0,11.6,5.1,11.6,11.5V70.4z M382.8,70.4V24.1h-11.5
		v46.2H382.8z"/>
</g>
</svg>
